lib/brands/logos/american-red-cross.svg

<svg xmlns="http://www.w3.org/2000/svg" fill="none" aria-hidden="true" viewBox="0 0 171 70"><g id="American Red Cross"><g id="Group"><path id="Vector" fill="#CC2131" fill-rule="evenodd" d="M21.5205 26.4818H4.27501V43.7273H21.5205V60.971H38.7651V43.7273H56.0097V26.4818H38.7651V9.23718H21.5205V26.4818Z" clip-rule="evenodd"/><path id="Vector_2" fill="black" fill-rule="evenodd" d="M82.2481 22.7593H79.4573L80.8709 18.1877L82.2481 22.7593ZM73.6006 27.4595H78.0064L78.576 25.6604H83.0921L83.6617 27.4595H88.0666L83.2206 14.4982H78.5578L73.6006 27.4595V27.4595ZM92.8953 19.326C93.1905 18.8493 93.8313 17.7292 95.9075 17.7292C96.2383 17.7292 96.7688 17.7657 97.3575 17.9498C98.5871 18.3353 98.9552 19.0152 99.2114 19.5101C99.4875 18.8858 100.351 17.7292 102.517 17.7292C103.545 17.7292 104.537 18.0592 105.161 18.6844C106.022 19.5292 106.043 20.5573 106.06 21.456V27.4595H102.278V22.4841C102.278 21.878 102.261 20.8508 100.958 20.8508C99.5804 20.8508 99.5622 21.97 99.5622 22.392V27.4777H95.7807V22.3373C95.7807 22.1541 95.7624 21.97 95.7268 21.7868C95.561 21.0522 94.9193 20.8508 94.4582 20.8508C94.0736 20.8508 93.6881 20.9784 93.4302 21.2354C93.0811 21.5845 93.0811 21.97 93.0637 22.3009V27.4777H89.2823V17.968H92.8979V19.326H92.8953ZM111.42 21.3822C111.511 20.9602 111.713 19.9686 112.853 19.9686C113.365 19.9686 113.954 20.2621 114.118 20.9411C114.155 21.0878 114.155 21.2346 114.173 21.3822H111.42ZM114.706 23.9342C114.32 24.7052 113.843 25.1645 112.98 25.1645C112.283 25.1645 111.934 24.8155 111.842 24.7234C111.42 24.3014 111.402 23.8056 111.384 23.3836H118.028C117.993 21.9327 117.975 20.3541 116.578 18.977C115.422 17.8569 113.916 17.5634 112.76 17.5634C109.676 17.5634 107.528 19.5648 107.528 22.6673C107.528 25.3113 109.254 27.8441 112.78 27.8441C115.056 27.8441 116.708 26.9455 117.827 25.2375L114.706 23.9342V23.9342ZM123.041 18.7755C124.069 17.8577 124.766 17.7475 126.218 17.7475V20.9411C125.96 20.9229 125.702 20.9046 125.446 20.9046C123.224 20.9046 123.186 22.3547 123.168 22.979V27.4586H119.405V17.8942H123.041V18.7755V18.7755ZM127.429 14.4974H131.21V17.0129H127.429V14.4974ZM127.429 17.9498H131.21V27.4595H127.429V17.9498ZM142.648 24.9067C142.409 25.4207 142.207 25.8253 141.728 26.302C141.196 26.8525 139.966 27.8259 137.763 27.8259C134.624 27.8259 132.698 25.696 132.698 22.6308C132.698 21.0522 133.266 19.7663 134.054 18.9587C135.376 17.5816 137.268 17.5078 137.983 17.5078C138.626 17.5078 140.444 17.526 141.894 18.9952C142.26 19.3616 142.426 19.6187 142.647 19.986L139.764 21.6201C139.525 20.7761 139.067 20.17 138.166 20.17C137.01 20.17 136.442 21.3084 136.442 22.7394C136.442 23.4922 136.588 24.924 138.075 24.924C139.232 24.924 139.6 23.8221 139.764 23.3272L142.648 24.9067ZM149.79 23.0346C149.79 23.3654 149.79 23.7509 149.606 24.1547C149.275 24.8893 148.394 25.2384 147.861 25.2384C147.146 25.2384 146.925 24.7608 146.925 24.5038C146.925 24.3935 146.962 23.9533 147.695 23.6589C148.026 23.5495 148.357 23.4757 148.669 23.4028C149.055 23.2916 149.421 23.1631 149.79 23.0346ZM147.291 20.7214C147.42 20.0598 147.66 19.8401 148.523 19.8401C149.606 19.8401 149.79 20.2803 149.808 20.9229C149.238 21.0878 148.834 21.1799 147.788 21.3275C146.117 21.5472 145.088 21.6939 144.225 22.5761C143.546 23.2551 143.417 24.0444 143.417 24.614C143.417 26.2291 144.463 27.6792 146.849 27.6792C148.632 27.6792 149.512 27.0557 149.99 26.7249V27.4595H153.716C153.442 27.074 153.385 26.9081 153.385 26.2838V21.1069C153.385 19.9686 153.385 17.6372 148.869 17.6372C147.877 17.6372 146.52 17.7283 145.455 18.2797C144.097 18.9961 143.895 20.0059 143.747 20.8126L147.291 20.7214V20.7214ZM158.841 19.2166C159.151 18.7755 159.867 17.711 161.961 17.711C163.465 17.711 164.219 18.298 164.531 18.5923C165.431 19.4728 165.486 20.7405 165.486 21.456V27.4595H161.704V22.2635C161.704 21.786 161.686 20.8317 160.42 20.8317C159.079 20.8317 159.043 21.878 159.043 22.392V27.4595H155.262V17.9498H158.842V19.2166H158.841V19.2166ZM79.5216 33.588C80.2379 33.588 81.5222 33.6245 81.5222 35.111C81.5222 36.5793 80.2188 36.6167 79.5398 36.6167H77.8327V33.5871H79.5216V33.588ZM73.7204 43.8506H77.8327V39.2798H79.044L81.5586 43.8506H86.1121L82.954 38.619C83.5601 38.3802 84.1106 38.1779 84.6247 37.6265C85.5616 36.6731 85.6163 35.5165 85.6163 35.0199C85.6163 33.7712 85.1022 32.0094 83.3769 31.2748C82.5867 30.9449 81.4119 30.8711 80.1824 30.8711H73.7204V43.8506V43.8506ZM89.93 37.7741C90.0229 37.3521 90.2235 36.3614 91.3627 36.3614C91.875 36.3614 92.4637 36.6531 92.6279 37.333C92.6652 37.4806 92.6652 37.6265 92.6834 37.7741H89.93V37.7741ZM93.2174 40.327C92.831 41.0972 92.3543 41.5565 91.493 41.5565C90.794 41.5565 90.4449 41.2074 90.3538 41.1154C89.9318 40.6934 89.9127 40.1976 89.8962 39.7756H96.5405C96.5031 38.3255 96.4866 36.7469 95.0904 35.3698C93.9338 34.2497 92.4299 33.9562 91.2733 33.9562C88.1882 33.9562 86.0409 35.9568 86.0409 39.0584C86.0409 41.7041 87.7662 44.2361 91.2898 44.2361C93.5656 44.2361 95.2189 43.3374 96.3381 41.6294L93.2174 40.327V40.327ZM101.643 40.9504C101.386 40.6743 101.112 40.1602 101.112 39.0766C101.112 38.6372 101.148 38.2882 101.222 37.9573C101.551 36.7634 102.452 36.7634 102.58 36.7634C102.929 36.7634 103.627 36.9666 103.901 37.8662C104.03 38.2526 104.047 38.6546 104.047 39.0584C104.047 39.5368 104.047 40.4181 103.552 40.9322C103.296 41.1901 102.947 41.3542 102.599 41.3542C102.23 41.3542 101.883 41.2066 101.643 40.9504ZM103.958 35.0016C103.571 34.6534 102.965 34.0656 101.534 34.0656C99.458 34.0656 97.3845 35.5521 97.3845 38.8752C97.3845 41.8665 98.9448 44.0885 101.662 44.0885C102.048 44.0885 102.562 44.0529 103.094 43.8514C103.627 43.65 103.81 43.4477 104.068 43.1524V43.8514H107.738V30.8902H103.958V35.0016V35.0016ZM126.832 40.5102C126.501 41.1345 126.19 41.7215 125.565 42.3449C124.243 43.6491 122.389 44.2543 120.535 44.2543C115.909 44.2543 113.816 40.7672 113.816 37.4433C113.816 33.9553 116.147 30.4117 120.535 30.4117C122.499 30.4117 124.371 31.1099 125.73 32.5052C126.281 33.074 126.537 33.5151 126.813 34.0291L123.381 35.7353C123.05 34.9652 122.426 33.588 120.699 33.588C119.801 33.588 119.231 34.01 118.954 34.2861C117.982 35.2222 117.982 36.6905 117.982 37.2045C117.982 39.133 118.698 40.9504 120.718 40.9504C122.627 40.9504 123.197 39.2615 123.343 38.8204L126.832 40.5102V40.5102ZM131.384 35.1675C132.414 34.2488 133.11 34.1385 134.56 34.1385V37.333C134.302 37.3148 134.046 37.2957 133.79 37.2957C131.568 37.2957 131.531 38.7458 131.512 39.3718V43.8506H127.749V34.2861H131.384V35.1675V35.1675ZM140.747 36.5993C142.473 36.5455 142.509 38.4549 142.509 39.0228C142.509 40.4537 142.087 41.5747 140.765 41.5747C139.224 41.5747 139.003 39.977 139.003 39.0584C139.003 37.9929 139.315 36.6366 140.747 36.5993ZM140.857 33.9371C137.35 33.9188 135.24 36.0479 135.24 39.1704C135.24 41.7215 136.819 44.217 140.655 44.217C144.254 44.217 146.328 42.107 146.328 39.1139C146.328 37.6083 145.741 36.1764 144.84 35.3133C144.106 34.617 142.786 33.9553 140.857 33.9371V33.9371ZM149.064 40.3808C149.413 40.7299 149.761 41.0424 150.495 41.3542C151.174 41.6286 151.689 41.6659 152 41.6659C152.46 41.6659 152.993 41.5001 152.993 41.0789C152.993 40.6005 152.423 40.5093 152.038 40.4529C151.707 40.3973 150.918 40.2697 150.055 40.0135C149.173 39.7556 147.429 39.2416 147.429 37.2219C147.429 36.377 147.815 35.6077 148.385 35.0563C149.505 33.9918 151.121 33.9544 151.743 33.9544C152.46 33.9544 153.176 34.0465 153.892 34.2115C155.196 34.5241 155.746 34.9278 156.28 35.3316L154.24 37.1854C153.599 36.7817 152.809 36.2867 151.799 36.2867C151.651 36.2867 150.991 36.2867 150.991 36.7817C150.991 37.1307 151.247 37.1854 152.514 37.4971C154.203 37.8835 154.607 37.9756 155.066 38.2126C156.021 38.7284 156.554 39.608 156.554 40.6917C156.554 42.5637 154.992 44.2161 152.038 44.2161C149.319 44.2161 147.759 42.9692 146.952 42.3084L149.064 40.3808V40.3808ZM159.234 40.3808C159.635 40.8053 160.124 41.1374 160.667 41.3542C161.345 41.6286 161.859 41.6659 162.171 41.6659C162.628 41.6659 163.163 41.5001 163.163 41.0789C163.163 40.6005 162.594 40.5093 162.208 40.4529C161.877 40.3973 161.089 40.2697 160.226 40.0135C159.344 39.7556 157.601 39.2416 157.601 37.2219C157.601 36.377 157.985 35.6077 158.556 35.0563C159.675 33.9918 161.291 33.9544 161.914 33.9544C162.629 33.9544 163.346 34.0465 164.063 34.2115C165.367 34.5241 165.918 34.9278 166.449 35.3316L164.412 37.1854C163.769 36.7817 162.981 36.2867 161.97 36.2867C161.823 36.2867 161.163 36.2867 161.163 36.7817C161.163 37.1307 161.421 37.1854 162.686 37.4971C164.374 37.8835 164.778 37.9756 165.238 38.2126C166.193 38.7284 166.725 39.608 166.725 40.6917C166.725 42.5637 165.165 44.2161 162.209 44.2161C159.492 44.2161 157.932 42.9692 157.125 42.3084L159.234 40.3808V40.3808Z" clip-rule="evenodd"/></g></g></svg>

<svg xmlns="http://www.w3.org/2000/svg" fill="none" aria-hidden="true" viewBox="0 0 171 70"><g fill-rule="evenodd" clip-rule="evenodd"><path fill="#CC2131" d="M21.52 26.482H4.275v17.245H21.52v17.244h17.245V43.727H56.01V26.482H38.765V9.237H21.52v17.245Z"/><path fill="#000" d="M82.248 22.76h-2.79l1.413-4.572 1.377 4.571Zm-8.647 4.7h4.405l.57-1.8h4.516l.57 1.8h4.405L83.22 14.497h-4.663L73.6 27.46Zm19.294-8.134c.296-.477.936-1.597 3.013-1.597.33 0 .86.037 1.45.22 1.23.386 1.597 1.066 1.853 1.561.276-.624 1.14-1.78 3.306-1.78 1.028 0 2.02.33 2.644.954.861.845.882 1.873.899 2.772v6.003h-3.782v-4.975c0-.606-.017-1.633-1.32-1.633-1.378 0-1.396 1.119-1.396 1.541v5.086h-3.781v-5.14c0-.184-.019-.368-.054-.551-.166-.735-.808-.936-1.269-.936-.384 0-.77.127-1.028.384-.349.35-.349.735-.366 1.066v5.177h-3.782v-9.51h3.616v1.358h-.003Zm18.525 2.056c.091-.422.293-1.413 1.433-1.413.512 0 1.101.293 1.265.972.037.147.037.294.055.441h-2.753Zm3.286 2.552c-.386.771-.863 1.23-1.726 1.23-.697 0-1.046-.349-1.138-.44-.422-.423-.44-.918-.458-1.34h6.644c-.035-1.451-.053-3.03-1.45-4.407-1.156-1.12-2.662-1.414-3.818-1.414-3.084 0-5.232 2.002-5.232 5.104 0 2.644 1.726 5.177 5.252 5.177 2.276 0 3.928-.899 5.047-2.607l-3.121-1.303Zm8.335-5.159c1.028-.917 1.725-1.027 3.177-1.027v3.193c-.258-.018-.516-.036-.772-.036-2.222 0-2.26 1.45-2.278 2.074v4.48h-3.763v-9.565h3.636v.882Zm4.388-4.278h3.781v2.516h-3.781v-2.516Zm0 3.453h3.781v9.51h-3.781v-9.51Zm15.219 6.957c-.239.514-.441.918-.92 1.395-.532.55-1.762 1.524-3.965 1.524-3.139 0-5.065-2.13-5.065-5.195 0-1.579.568-2.865 1.356-3.672 1.322-1.377 3.214-1.451 3.929-1.451.643 0 2.461.018 3.911 1.487.366.367.532.624.753.991l-2.883 1.634c-.239-.844-.697-1.45-1.598-1.45-1.156 0-1.724 1.138-1.724 2.57 0 .752.146 2.184 1.633 2.184 1.157 0 1.525-1.102 1.689-1.597l2.884 1.58Zm7.142-1.872c0 .33 0 .716-.184 1.12-.331.734-1.212 1.083-1.745 1.083-.715 0-.936-.477-.936-.734 0-.11.037-.55.77-.845.331-.11.662-.183.974-.256.386-.111.752-.24 1.121-.368Zm-2.499-2.314c.129-.661.369-.88 1.232-.88 1.083 0 1.267.44 1.285 1.082-.57.165-.974.257-2.02.405-1.671.22-2.7.366-3.563 1.248-.679.68-.808 1.468-.808 2.038 0 1.615 1.046 3.065 3.432 3.065 1.783 0 2.663-.623 3.141-.954v.734h3.726c-.274-.385-.331-.55-.331-1.175v-5.177c0-1.138 0-3.47-4.516-3.47-.992 0-2.349.091-3.414.643-1.358.716-1.56 1.726-1.708 2.533l3.544-.092Zm11.55-1.504c.31-.441 1.026-1.506 3.12-1.506 1.504 0 2.258.587 2.57.881.9.88.955 2.149.955 2.864v6.003h-3.782v-5.195c0-.478-.018-1.432-1.284-1.432-1.341 0-1.377 1.046-1.377 1.56v5.067h-3.781v-9.51h3.58v1.268h-.001Zm-79.32 14.371c.717 0 2.001.036 2.001 1.523 0 1.468-1.303 1.506-1.982 1.506h-1.707v-3.03h1.689v.001Zm-5.8 10.263h4.112V39.28h1.211l2.515 4.57h4.553l-3.158-5.231c.606-.239 1.157-.441 1.67-.992.938-.954.992-2.11.992-2.607 0-1.249-.514-3.01-2.24-3.745-.79-.33-1.964-.404-3.194-.404H73.72v12.98Zm16.209-6.077c.093-.422.293-1.413 1.433-1.413.512 0 1.1.292 1.265.972.037.148.037.294.055.441H89.93Zm3.287 2.553c-.386.77-.863 1.23-1.724 1.23-.699 0-1.048-.35-1.14-.442-.421-.422-.44-.917-.457-1.34h6.644c-.037-1.45-.053-3.028-1.45-4.405-1.156-1.12-2.66-1.414-3.817-1.414-3.085 0-5.232 2-5.232 5.102 0 2.646 1.725 5.178 5.249 5.178 2.276 0 3.929-.899 5.048-2.607l-3.12-1.302Zm8.426.623c-.257-.276-.531-.79-.531-1.873 0-.44.036-.789.11-1.12.329-1.194 1.23-1.194 1.358-1.194.349 0 1.047.204 1.321 1.103.129.387.146.789.146 1.192 0 .479 0 1.36-.495 1.874-.256.258-.605.422-.953.422-.369 0-.716-.147-.956-.404Zm2.315-5.948c-.387-.349-.993-.936-2.424-.936-2.076 0-4.15 1.486-4.15 4.81 0 2.99 1.56 5.213 4.278 5.213.386 0 .9-.036 1.432-.238.533-.201.716-.403.974-.699v.7h3.67V30.89h-3.78v4.112Zm22.874 5.508c-.331.625-.642 1.212-1.267 1.835-1.322 1.304-3.176 1.91-5.03 1.91-4.626 0-6.719-3.488-6.719-6.812 0-3.488 2.331-7.031 6.719-7.031 1.964 0 3.836.698 5.195 2.093.551.569.807 1.01 1.083 1.524l-3.432 1.706c-.331-.77-.955-2.147-2.682-2.147a2.43 2.43 0 0 0-1.745.698c-.972.936-.972 2.404-.972 2.919 0 1.928.716 3.745 2.736 3.745 1.909 0 2.479-1.689 2.625-2.13l3.489 1.69Zm4.552-5.343c1.03-.918 1.726-1.029 3.176-1.029v3.195c-.258-.018-.514-.037-.77-.037-2.222 0-2.259 1.45-2.278 2.076v4.479h-3.763v-9.565h3.635v.881Zm9.363 1.432c1.726-.053 1.762 1.856 1.762 2.424 0 1.43-.422 2.552-1.744 2.552-1.541 0-1.762-1.598-1.762-2.517 0-1.065.312-2.421 1.744-2.459Zm.11-2.662c-3.507-.018-5.617 2.11-5.617 5.233 0 2.551 1.579 5.047 5.415 5.047 3.599 0 5.673-2.11 5.673-5.103 0-1.506-.587-2.938-1.488-3.8-.734-.697-2.054-1.359-3.983-1.377Zm8.207 6.444a4.02 4.02 0 0 0 1.431.973c.679.275 1.194.312 1.505.312.46 0 .993-.166.993-.587 0-.479-.57-.57-.955-.626-.331-.056-1.12-.183-1.983-.44-.882-.257-2.626-.771-2.626-2.791 0-.845.386-1.614.956-2.166 1.12-1.064 2.736-1.102 3.358-1.102.717 0 1.433.093 2.149.258 1.304.312 1.854.716 2.388 1.12l-2.04 1.853c-.641-.403-1.431-.898-2.441-.898-.148 0-.808 0-.808.495 0 .349.256.403 1.523.715 1.689.386 2.093.479 2.552.716.955.515 1.488 1.395 1.488 2.479 0 1.872-1.562 3.524-4.516 3.524-2.719 0-4.279-1.247-5.086-1.908l2.112-1.927Zm10.17 0c.401.424.89.756 1.433.973.678.275 1.192.312 1.504.312.457 0 .992-.166.992-.587 0-.479-.569-.57-.955-.626-.331-.056-1.119-.183-1.982-.44-.882-.257-2.625-.771-2.625-2.791 0-.845.384-1.614.955-2.166 1.119-1.064 2.735-1.102 3.358-1.102.715 0 1.432.093 2.149.258 1.304.312 1.855.716 2.386 1.12l-2.037 1.853c-.643-.403-1.431-.898-2.442-.898-.147 0-.807 0-.807.495 0 .349.258.403 1.523.715 1.688.386 2.092.479 2.552.716.955.515 1.487 1.395 1.487 2.479 0 1.872-1.56 3.524-4.516 3.524-2.717 0-4.277-1.247-5.084-1.908l2.109-1.927Z"/></g></svg>
